Hatter-kde/status/24/bluetooth-disabled-70-symbolic.svg

<?xml version="1.0" encoding="UTF-8" standalone="no"?>
<svg
   xmlns:dc="http://purl.org/dc/elements/1.1/"
   xmlns:cc="http://creativecommons.org/ns#"
   xmlns:rdf="http://www.w3.org/1999/02/22-rdf-syntax-ns#"
   xmlns:svg="http://www.w3.org/2000/svg"
   xmlns="http://www.w3.org/2000/svg"
   id="svg6"
   version="1.1"
   width="24"
   height="24">
  <metadata
     id="metadata12">
    <rdf:RDF>
      <cc:Work
         rdf:about="">
        <dc:format>image/svg+xml</dc:format>
        <dc:type
           rdf:resource="http://purl.org/dc/dcmitype/StillImage" />
        <dc:title></dc:title>
      </cc:Work>
    </rdf:RDF>
  </metadata>
  <defs
     id="defs10" />
  <path
     id="path2"
     d="M 6.3515625,4.7363281 5.4121094,5.6777344 14.892578,15.158203 h -0.90625 L 12,16.9375 V 13.566406 L 10.494141,12.060547 8.3125,13.96875 c -0.310445,0.276247 -0.3384165,0.751761 -0.0625,1.0625 0.273,0.313 0.71825,0.36675 1.03125,0.09375 l 1.720703,-1.5 V 18.5 c 0,0.277 0.222,0.5 0.5,0.5 0.282,0 0.436297,-0.0195 0.654297,-0.1875 l 3.53125,-3.15625 c 0.106935,-0.10178 0.18279,-0.231818 0.21875,-0.375 0.02829,-0.09089 0.0389,-0.186364 0.03125,-0.28125 -0.0046,-0.05308 -0.01511,-0.105477 -0.03125,-0.15625 -0.03596,-0.143182 -0.111815,-0.27322 -0.21875,-0.375 l -0.05664,-0.05078 0.201172,-0.201172 L 13.267578,11.652344 15.6875,9.53125 c 0.106935,-0.1017801 0.18279,-0.2318176 0.21875,-0.375 0.04605,-0.1421978 0.04605,-0.2953022 0,-0.4375 C 15.87029,8.5755676 15.794435,8.4455301 15.6875,8.34375 L 12.15625,5.1875 C 11.95725,5.0275 11.729,5 11.5,5 11.223,5 11,5.223 11,5.5 V 9.3847656 Z M 12,7.0625 14.09375,8.9375 12.195312,10.580078 12,10.384766 Z"
     style="overflow:visible;fill:#f2f2f2;marker:none" />
</svg>

<?xml version="1.0" encoding="UTF-8"?>
<svg id="svg6" width="24" height="24" version="1.1" xmlns="http://www.w3.org/2000/svg" xmlns:cc="http://creativecommons.org/ns#" xmlns:dc="http://purl.org/dc/elements/1.1/" xmlns:rdf="http://www.w3.org/1999/02/22-rdf-syntax-ns#">
 <metadata id="metadata12">
  <rdf:RDF>
   <cc:Work rdf:about="">
    <dc:format>image/svg+xml</dc:format>
    <dc:type rdf:resource="http://purl.org/dc/dcmitype/StillImage"/>
    <dc:title/>
   </cc:Work>
  </rdf:RDF>
 </metadata>
 <path id="path2" d="m6.3516 4.7363-0.93945 0.94141 9.4805 9.4805h-0.90625l-1.9863 1.7793v-3.3711l-1.5059-1.5059-2.1816 1.9082c-0.31044 0.27625-0.33842 0.75176-0.0625 1.0625 0.273 0.313 0.71825 0.36675 1.0312 0.09375l1.7207-1.5v4.875c0 0.277 0.222 0.5 0.5 0.5 0.282 0 0.4363-0.0195 0.6543-0.1875l3.5312-3.1562c0.10694-0.10178 0.18279-0.23182 0.21875-0.375 0.02829-0.09089 0.0389-0.18636 0.03125-0.28125-0.0046-0.05308-0.01511-0.10548-0.03125-0.15625-0.03596-0.14318-0.11182-0.27322-0.21875-0.375l-0.05664-0.05078 0.20117-0.20117-2.5645-2.5645 2.4199-2.1211c0.10694-0.10178 0.18279-0.23182 0.21875-0.375 0.04605-0.1422 0.04605-0.2953 0-0.4375-0.03596-0.14318-0.11182-0.27322-0.21875-0.375l-3.5312-3.1562c-0.199-0.16-0.42725-0.1875-0.65625-0.1875-0.277 0-0.5 0.223-0.5 0.5v3.8848zm5.6484 2.3262 2.0938 1.875-1.8984 1.6426-0.19531-0.19531z" color="#bebebe" fill="#fff"/>
</svg>
